!!!COM: Anton (Friedrich Wilhelm von) Webern
!!!OTL: [T412_Web-w8p4m33-43]
**kern	**dynam	**kern	**dynam	**kern	**dynam	**kern	**dynam
*part4	*part4	*part3	*part3	*part2	*part2	*part1	*part1
*staff4	*	*staff3	*	*staff2	*	*staff1	*
*I"Violoncello	*	*I"Viola	*	*I"Violin II	*	*I"Violin I	*
*I'Vc.	*	*I'Vla.	*	*I'Vln. II	*	*I'Vln. I	*
!!pagebreak:original
*clefF4	*	*clefC3	*	*clefG2	*	*clefG2	*
*k[]	*	*k[]	*	*k[]	*	*k[]	*
*C:	*	*C:	*	*C:	*	*C:	*
*M2/4	*	*M2/4	*	*M2/4	*	*M2/4	*
=1	=1	=1	=1	=1	=1	=1	=1
!	!	!	!	!	!	!LO:TX:t=[quarter]=88	!
!	!	!	!	!	!	!LO:TX:a:t=rit.	!
!	!	!	!	!	!	!LO:TX:b:t=[pp]	!
!LO:TX:b:t=[ppp]	!	!LO:TX:b:t=[pp]	!	!LO:TX:b:t=[pp]	!	!LO:TX:a:t=[mit Dämpfer]	!
[2FF#X	.	4.G 4.e	>	4.g 4.cc	>	(8ffL)	.
.	.	.	.	.	.	(8ggn	>
.	.	.	.	.	.	8ffn	.
.	.	((8Gn 8d#X	] >	((8f#X 8ccn	] >	[8eenJ	]
=2	=2	=2	=2	=2	=2	=2	=2
4FF#]	.	2G#X 2en))	]	2gn 2cc#X))	]	8ee])	.
.	.	.	.	.	.	[4.ffn	pp > ]
([4BBn	.	.	.	.	.	.	.
=3	=3	=3	=3	=3	=3	=3	=3
4BB]	.	[2Gn [2d#X	>	[2f#X [2ccn	>	8ff]	<
.	.	.	.	.	.	(4een	.
[4FF#X	.	.	.	.	.	.	.
.	.	.	.	.	.	[8ffn	[ >
=4	=4	=4	=4	=4	=4	=4	=4
4FF#])	.	4G] 4d#]	.	4f#] 4cc]	.	4ff])	.
!	!	!	!	!	!	!LO:TX:t=[quarter]=88	!
!	!	!	!	!	!	!LO:TX:a:t=am Steg	!
4r	.	4r	]	4r	]	8r	]
.	.	.	.	.	.	(8gg-X	ppp <
=5	=5	=5	=5	=5	=5	=5	=5
*M3/4	*	*M3/4	*	*M3/4	*	*M3/4	*
!LO:TX:a:t=am Steg	!	!LO:TX:a:t=am Steg	!	!LO:TX:a:t=am Steg	!	!	!
4%3r	.	(4an	ppp >	(4dd-X	ppp >	8bb-XL	.
.	.	.	.	.	.	8ggnJ	[ >
.	.	4a-X)	]	4ccn)	]	4aan)	.
!	!	!	!	!LO:TX:a:t=pizz.	!	!	!
.	.	4r	.	8r	.	8r	]
.	.	.	.	8bb-X'	ppp > ]	(8bbb-X	ppp
=6	=6	=6	=6	=6	=6	=6	=6
*tremolo	*	*	*	*	*	*	*
*	*	*tremolo	*	*	*	*	*
!	!	!LO:TX:a:t=am Steg	!	!	!	!	!
32cnLLL	ppp >	32enLLL	ppp >	8bn'L	>	8bbnL)	.
32cn	.	32en	.	.	.	.	.
32cn	.	32en	.	.	.	.	.
32cn	.	32en	.	.	.	.	.
32cn	.	32en	.	8cc#X'J	] >	([8ccc#XJ	<
32cn	.	32en	.	.	.	.	.
32cn	.	32en	.	.	.	.	.
32cnJJJ	.	32enJJJ	.	.	.	.	.
*	*	*Xtremolo	*	*	*	*	*
*Xtremolo	*	*	*	*	*	*	*
8dn~L	.	8f#X~L	.	16r	.	16ccc#LL]	[ >
.	.	.	.	16gn'	]	16ggnJJ)	.
16r	]	16r	]	8r	.	8r	]
!LO:TX:a:i:t=espress.	!	!	!	!	!	!	!
([16CnJk	pp	(16EnJk	pp <	.	.	.	.
!	!	!LO:TX:a:i:t=espress.	!	!	!	!LO:TX:a:i:t=begleitend	!
16CLL]	<	16ELL	.	4r	.	(8.ccc#XL	ppp
16DnJ	.	16F#XJ	.	.	.	.	.
[8AnJ)	[	[8fnJ)	[	.	.	.	.
.	.	.	.	.	.	16ggnJk)	.
!!linebreak:original
=7	=7	=7	=7	=7	=7	=7	=7
4A]	.	4f]	.	4%3r	.	(8ggg#XL	.
.	.	.	.	.	.	8eeenJ	.
(8G#XL	>	(8enL	>	.	.	8.ggnL)	.
8DnJ)	.	8B-XJ)	.	.	.	.	.
.	.	.	.	.	.	(16ggg#XJk	<
16r	]	16r	]	.	.	8eeenL	.
(8CnL	p <	(8EnL	p <	.	.	.	.
.	.	.	.	.	.	8ggnJ	[
16DnJk	.	16F#XJk	[	.	.	.	.
=8	=8	=8	=8	=8	=8	=8	=8
4.An)	[ >	4.fn)	>	4%3r	.	(8.ggg#XL	pp <
.	.	.	.	.	.	16eeenJk	.
.	.	.	.	.	.	8ggnL)	[
(8Gn	]	(8en	]	.	.	8ggg#XJ	<
8DnL	<	8B-XL	<	.	.	8.eeenL	.
8CnJ)	[	8A-XJ)	[	.	.	.	.
.	.	.	.	.	.	(16aaanJk	p [ >
=9	=9	=9	=9	=9	=9	=9	=9
(8G-XL	>	(8dnL	>	4r	.	8.bb-XL)	.
8FnJ)	.	8AnJ)	.	.	.	.	.
.	.	.	.	.	.	(16gggnJk	] <
!	!	!	!	!LO:TX:a:t=arco	!	!	!
8r	]	8r	]	4r	.	8ggg-XL	.
(8EnL	p <	(8A-XL	p <	.	.	8eee-XJ	.
8B-X	.	8dn	.	8.r	.	8ggnL)	[
[8BnJ	[	[8e-XJ	[	.	.	16r	.
.	.	.	.	(16ggn	mf >	16gggnJk	mf
=10	=10	=10	=10	=10	=10	=10	=10
!	!	!	!	!	!	!LO:TX:a:t=accel.	!
8BL]	>	8e-L]	>	4gg-X	.	4ggg-X	>
8CnJ)	.	8EnJ)	.	.	.	.	.
8r	]	4r	]	8ffn)	.	8fffn	]
(8G-XL	mf <	.	.	8r	]	8r	.
!	!	!	!	!	!	!LO:TX:a:t=Dämpfer ab	!
8E-X	.	8r	.	8r	.	4r	.
8GGnJ)	[	([8cn 8a-X	f	([8fff#X	f >	.	.
=11	=11	=11	=11	=11	=11	=11	=11
4E-X	.	4c] 4gn)	>	8fff#L]	.	4%3r	.
.	.	.	.	8eeenJ)	]	.	.
(8G-XL	f <	8r	]	8r	.	.	.
8E-X	.	([4cn 4a-X	f >	([8fffn	f >	.	.
8GGn)	[	.	.	8.fffL]	.	.	.
[8G-XJ	< [	8c] 8gn)	]	.	.	.	.
.	.	.	.	16eeenJk)	]	.	.
=	=	=	=	=	=	=	=
*-	*-	*-	*-	*-	*-	*-	*-
!!!system-decoration: [(s1,s2,s3,s4)]
